workspaces/osm/styles/symbols/shop/laundry.svg

<?xml version="1.0" encoding="UTF-8" standalone="no"?>
<svg
   xmlns:dc="http://purl.org/dc/elements/1.1/"
   xmlns:cc="http://creativecommons.org/ns#"
   xmlns:rdf="http://www.w3.org/1999/02/22-rdf-syntax-ns#"
   xmlns:svg="http://www.w3.org/2000/svg"
   xmlns="http://www.w3.org/2000/svg"
   id="svg2"
   viewBox="0 0 14 14"
   height="14"
   width="14"
   version="1.1">
  <defs
     id="defs3053" />
  <metadata
     id="metadata8">
    <rdf:RDF>
      <cc:Work
         rdf:about="">
        <dc:format>image/svg+xml</dc:format>
        <dc:type
           rdf:resource="http://purl.org/dc/dcmitype/StillImage" />
        <dc:title></dc:title>
      </cc:Work>
    </rdf:RDF>
  </metadata>
  <rect
     style="fill:none;stroke:none;visibility:hidden"
     id="canvas"
     y="0"
     x="0"
     height="14"
     width="14" />
  <path
     style="fill:#000000;fill-opacity:1;fill-rule:evenodd;stroke:none"
     id="path3051"
     d="M 9.5,8.5 C 9.5,9.8807119 8.380712,11 7,11 5.619509,11 4.500312,9.8810564 4.5,8.5005654 M 1,0 1,14 13,14 13,0 1,0 Z M 3,1 8,1 8,3 3,3 3,1 Z m 7,0 2,0 0,2 -2,0 0,-2 z M 7,5 c 1.60466,0 3.01542,1.0999131 3.40625,2.65625 L 10.5,8.5 C 10.5,10.432997 8.932997,12 7,12 5.067003,12 3.5,10.432997 3.5,8.5 3.5,6.5670034 5.067003,5 7,5 Z" />
</svg>

<svg width="14" height="14" version="1.1" viewBox="0 0 14 14" xmlns="http://www.w3.org/2000/svg"><rect id="a" width="14" height="14" fill="none" visibility="hidden"/><path d="m9.5 8.5c0.022572 1.154-0.86242 2.2372-1.9962 2.4492-1.0903 0.24366-2.2891-0.3513-2.7571-1.365-0.16269-0.33649-0.24711-0.70998-0.2467-1.0836m-3.5-8.5006v14h12v-14h-12zm2 1h5v2h-5v-2zm7 0h2v2h-2v-2zm-3 4c1.488-0.020531 2.9094 1.0179 3.3447 2.4405 0.10819 0.34199 0.10318 0.70646 0.15535 1.0595 0.019113 1.3763-0.8655 2.7036-2.1376 3.225-1.2497 0.5443-2.8022 0.26267-3.7771-0.69141-0.98794-0.91797-1.3484-2.4303-0.88731-3.6966 0.44589-1.3126 1.7353-2.2803 3.122-2.3323 0.059985-0.0030408 0.12005-0.0045543 0.18011-0.0045542z" fill-rule="evenodd"/></svg>
